!!!Genre:	Khosid
!!!Mode:	Minor
!!!Listening/dance:	dance
!!!One_Mode:	no
**kern
*thru
*I"P1
*clefG2
*k[b-e-]
*g:
*M2/4
*>A
=1
4g
4g
=2
8gL
8fJ
4f
=3
8gL
8ccJ
8ccL
(16b-L
16aJJ)
=4
2b-
=5
(16b-LL
16ccJ)
8aJ
(16aLL
16b-J)
8gJ
=6
(16gLL
16aJ)
8fJ
8fL
8fJ
=7
8gL
8b-J
(16b-LL
16a)
(16a
16gJJ)
=8
2g
*>bM
*B-:
=9||
*>B
!LO:TX:a:i:t=Bb-major
2b-
=10
2b-
=11
4b-
4b-
=12
4b-
4b-
=13
8ccL
8b-
8b-
8ccJ
=14
8ccL
8ddJ
4b-
=15
8ccL
8b-
8b-
8ccJ
=16
8ccL
8ddJ
4b-
=17
16aLL
16b-JJ
4cc
16b-LL
16aJJ
=18
8gL
8gJ
4f
=19
8gL
8ccJ
8ccL
16b-L
16aJJ
=20
2b-
=21
(16b-LL
16ccJ)
8aJ
(16aLL
16b-J)
8gJ
=22
(16gLL
16aJ)
8fJ
8fL
8fJ
=23
8gL
8ccJ
8ccL
16b-L
16aJJ
=24
2b-
*>eM
*g:
!LO:TX:a:i:t=G-minor
=25
(16b-LL
16ccJ)
8aJ
(16aLL
16b-J)
8gJ
=26
(16gLL
16aJ)
8fJ
8fL
8fJ
=27
8gL
8b-J
(16b-LL
16a)
(16a
16gJJ)
=28
2g
==
*-
